X:1
T:Sonata K. 208
T:Sonata K. 208
T:Domenico Scarlatti
C:Domenico Scarlatti
%%score { 1 | 2 }
L:1/8
Q:1/4=60
M:4/4
K:A
V:1 treble nm="Piano" snm="Pno."
V:2 bass 
V:1
"^Adagio e cantabile" A2 !2!c2{f} !4!e3 d/c/ | B f2{e} d2{c} B2 A | !1!G e2 c !1!G!4!A!2!^D!1!E | %3
 F/G/A/G/ !1!B/c/d/!1!c/ !4!a/g/b/a/ g/f/e/!4!d/ | c/4B/4A3/2 z c2 ^d2 e/c/ | %5
 !2!^A/!1!B/ !4!^d2 e/c/ !2!G/!1!=A/ !4!d2 e/c/- | c/A/ !2!c2 !5!a/!1!c/ !4!e/^d/f/e/ d/c/B/!4!A/ | %7
 G/4F/4E3/2 z e- e/=c/ E2 e- | e/B/ E2 e- e/=c/ F2 e- | %9
 e/c/ F2 !5!e- e/!2!^d/g/f/- f/d/!1!B/!2!A/- | A/G/e/^d/- d/c/B/A/- A/G/F/E/ PF3/2E/4F/4 | %11
 E/B/A/G/- G/A/G/!1!A/- A/!4!c/B/^A/- A/B/A/!1!B/ | a/g/f/e/ !1!^B/!3!c/e/E/ [EG]2 P[^DF]2 | E8 :: %14
 z2 B2 TB3 c/d/ | Bb>ag/f/- f/!1!^e/!4!g/!2!d/- d/!1!c/!3!c/B/- | %16
 B/^A/c/e/ =g/=G/c/e/ g/G/c/e/ g/G/c/e/ | =g/=G/c/e/ g/!4!=f/!5!f/e/ d/=F/A/d/ f/!4!e/!5!e/d/ | %18
 d/=F/B/d/ =f/!4!e/!5!e/d/ =G/c/e/=g/- g/!4!f/!3!f/e/ | %19
 g/a/=f/!2!d/- d/!1!=c/!2!c/B/ g/a/B/c/- c/^d/e/!1!A/- | %20
 A/!2!F/G/!1!A/ B/c/c/d/- d/!1!B/c/!3!d/ !2!d/^d/d/e/- | %21
 e/!2!c/!1!d/!2!e/ !1!e/!2!^e/!1!e/f/ d'/c'/b/a/ f/b/g/d/ | %22
 A/>B/(4:8:3A/4G/8A/8 PB3/2A/4G/4 A/e/d/c/- c/d/!3!c/!1!d/- | %23
 d/f/e/^d/- d/e/d/!1!e/- e/d'/c'/a/ ^e/f/b/a/ | A/>B/(6:8:4A/4G/4A/8B/8 TB3/2A/4B/4 A2 z2 :| %25
V:2
 !1!A,2 A,2 A,2 A,2 | !5!D,2 D,2 D,2 D,2 | !4!!1![D,B,]2 !5!!1![C,A,]2 [C,A,]2 [C,A,]2 | %3
 !4!!1![D,A,]2 !5!!2![D,A,]2 !4!!1![E,B,]2 !3!!1![E,B,]2 | A,,2 !1!A,2 !4!A,2 [A,E]2 | %5
 !5!!1![G,E]2 !3!!1![G,E]2 !4!!2![F,A,]2 [F,A,]2 | !5!!2![E,A,]2 [E,A,]2 [^D,A,B,]2 [D,A,B,]2 | %7
 [E,B,]2 !3!!1![E,B,]2 !5!!1![=C,B,]2 !4!!1![C,A,]2 | [=G,,=G,]2 [G,,G,]2 [A,,E,A,]2 [A,,E,A,]2 | %9
 [^A,,E,F,]2 [A,,E,F,]2 !5!!2![B,,F,]2 [B,,F,B,]2 | !3!!1![E,B,]2 [A,,A,]2 [B,,B,]2 [B,,B,]2 | %11
 !5!!1![C,B,]2 !5!!2![C,A,]2 [^D,B,]2 [D,B,]2 | !3!!1![E,B,]2 [A,,A,]2 [B,,E,B,]2 [B,,E,A,B,]2 | %13
 !4!E,8 :: B,,2 B,2 =G,2 E,2 | D,2 !4!!1![D,B,]2 [C,B,]2 !4!!1![C,B,]2 | %16
 !5!!2![C,=G,]2 !4!!1![C,G,]2 [B,,G,]2 !4!!1![B,,G,]2 | [A,,=G,]2 [A,,G,]2 [A,,=F,A,]2 [A,,A,]2 | %18
 [B,,G,]2 [B,,G,]2 [C,=G,A,]2 [C,G,A,]2 | %19
 !4!!1![D,A,]2 !5!!1![D,A,]2 !5!!2!!1![^D,A,B,]2 !4!!2!!1![D,A,B,]2 | %20
 !3!!1![E,B,]2 [E,B,]2 [A,,A,]2 [A,,A,]2 | !3!!1![D,A,]2 !4!!1![D,A,]2 !5!!2![D,A,]2 [D,D]2 | %22
 !5!!2!!1![E,A,C]2 !5!!1![E,B,]2 !4!!2![F,A,]2 [F,A,]2 | !3!!1![G,B,]2 [G,B,]2 !2!A,2 [D,D]2 | %24
 [E,A,C]2 !3!!1![E,B,]2 A,,2 z2 :| %25

